X: 746
T: Mengjun shang qianxian
L: 1/8
M: 2/4
K: F
F> D F C [I:setbarnb 1]| 
c> dc2 | 
f> d c A | 
G> FG2 | 
G G/ A/c2 | 
f f/ e/ d c | 
c A G D | 
C4 | 
c> d F G | 
A> GA2 | 
G/ A/ G/ F/ F C | 
D4 | 
c> d c d | 
f> f d c | 
c d c F | 
A2G/ F/ D | 
C4 |]

@@@ Tune index: 9620
